X:32
T:Green Grows the Rashess
S:Petrie's Third Collection of Strathspey Reels and Country Dances &c.
Z:Steve Wyrick , 7/30/05
N:Petrie's Third Collection, page 13
L:1/8
M:C
R:Reel
K:Em
B|G/G/G BA BGGB|A/A/A ed eAAB|(TcBce) dcBG|(BcTBA) GEE::B|
G/G/G ge gddg|e/e/e ag aeef|gage dcBG|(AcTBA) GEE:|]
